src/shared/icons/icon-umpires-circle.svg

<svg xmlns="http://www.w3.org/2000/svg" xmlns:xlink="http://www.w3.org/1999/xlink" version="1.1" viewBox="30.940256 1.1659571 9.8529997 9.8534603">
<rect id="icon-umpires-circle-clickable" x="29.95495603" y="0.18061107000000032" width="11.82359964" height="11.82415236" fill="transparent" fill-opacity="0" stroke-dasharray="0.0452804, 0.18112" stroke-width="0.0280007" style="mix-blend-mode:normal;stroke-miterlimit:4.1" class="bg-item bg" xmlns="http://www.w3.org/2000/svg"/>
<path id="circle42-1" style="display:inline;fill:#ffffff;stroke-width:0.389224;stroke-miterlimit:4.1" d="M 35.866705,1.3315627 A 4.7613688,4.7613688 0 0 0 31.105239,6.0925124 4.7613688,4.7613688 0 0 0 35.866705,10.853979 4.7613688,4.7613688 0 0 0 40.628172,6.0925124 4.7613688,4.7613688 0 0 0 35.866705,1.3315627 Z M 35.385598,2.262772 h 5.16e-4 c 0.118715,0.00108 0.208773,0.046509 0.208773,0.046509 L 35.867222,2.4601761 36.13904,2.309281 c 0,0 0.09058,-0.045669 0.20929,-0.046509 0.118714,-0.00105 0.265654,0.042731 0.378788,0.2206583 0.1179,0.1857749 0.07317,0.3476707 0.0078,0.4588868 l 2.134237,1.1844238 c 0,0 0.266877,0.1591308 0.347266,0.4480347 0.03886,0.1398485 -0.07648,0.4289143 -0.07648,0.4289143 L 37.58598,7.6949985 v 2.227771 H 37.03821 V 6.1715773 L 38.000425,4.808353 35.127216,3.0978631 c 0,0 -0.338381,-0.2716376 -0.120407,-0.6144328 0.113139,-0.1779508 0.260077,-0.2214998 0.378789,-0.2206583 z m -0.660425,0.8314738 0.0036,0.00362 0.938444,0.5586223 L 33.733485,4.8083557 34.6957,6.17158 V 9.9227722 H 34.14793 V 7.6950012 L 32.59402,5.0036926 c 0,0 -0.115868,-0.2890663 -0.077,-0.4289143 0.0804,-0.2889039 0.347782,-0.4480347 0.347782,-0.4480347 z m 1.132231,0.9089884 A 1.0153416,1.0153416 0 0 1 36.872845,5.0186761 1.0153416,1.0153416 0 0 1 35.857404,6.034118 1.0153416,1.0153416 0 0 1 34.841962,5.0186761 1.0153416,1.0153416 0 0 1 35.857404,4.0032342 Z m -0.24443,2.3120036 -0.0072,3.6075317 H 35.101377 V 6.9772129 Z m 0.507463,0 0.511596,0.6619751 v 2.9455566 h -0.503845 z" fill="white" fill-opacity="1" class="fg" xmlns="http://www.w3.org/2000/svg"/>
</svg>

<svg xmlns="http://www.w3.org/2000/svg" xmlns:xlink="http://www.w3.org/1999/xlink" version="1.1" viewBox="30.94 1.166 9.853 9.8535">
<rect id="icon-umpires-circle-clickable" x="29.954700000000003" y="0.18065000000000042" width="11.823599999999999" height="11.8242" fill="darkgreen" fill-opacity="1" stroke-dasharray="0.0452804, 0.18112" stroke-width=".028001" style="mix-blend-mode:normal" class="bg-item bg" xmlns="http://www.w3.org/2000/svg"/>
<path d="m35.867 1.3316a4.7614 4.7614 0 0 0-4.7615 4.7609 4.7614 4.7614 0 0 0 4.7615 4.7615 4.7614 4.7614 0 0 0 4.7615-4.7615 4.7614 4.7614 0 0 0-4.7615-4.7609zm-0.48111 0.93121h5.16e-4c0.11872 0.001084 0.20877 0.046509 0.20877 0.046509l0.27234 0.1509 0.27182-0.1509s0.090578-0.045669 0.20929-0.046509c0.11871-0.0010509 0.26565 0.042731 0.37879 0.22066 0.1179 0.18577 0.073171 0.34767 0.007751 0.45889l2.1342 1.1844s0.26688 0.15913 0.34727 0.44803c0.038863 0.13985-0.076481 0.42891-0.076481 0.42891l-1.5539 2.6913v2.2278h-0.54777v-3.7512l0.96222-1.3632-2.8732-1.7105s-0.33838-0.27164-0.12041-0.61443c0.11314-0.17795 0.26008-0.2215 0.37879-0.22066zm-0.66042 0.83147 0.003617 0.0036173 0.93844 0.55862-1.9337 1.1519 0.96222 1.3632v3.7512h-0.54777v-2.2278l-1.5539-2.6913s-0.11587-0.28907-0.076998-0.42891c0.080398-0.2889 0.34778-0.44803 0.34778-0.44803l1.8604-1.0325zm1.1322 0.90899a1.0153 1.0153 0 0 1 1.0154 1.0154 1.0153 1.0153 0 0 1-1.0154 1.0154 1.0153 1.0153 0 0 1-1.0154-1.0154 1.0153 1.0153 0 0 1 1.0154-1.0154zm-0.24443 2.312-0.007235 3.6075h-0.50436v-2.9456l0.5116-0.66198zm0.50746 0 0.5116 0.66198v2.9456h-0.50384l-0.007751-3.6075z" fill="white" stroke-miterlimit="4.1" stroke-width=".38922" fill-opacity="1" class="fg" xmlns="http://www.w3.org/2000/svg"/>
</svg>
